X:371
T: Inspiring Horn
N: O'Farrell's Pocket Companion v.4 (Sky ed. p.160)
M: 6/8
L: 1/8
Q: 300
R: jig
K: G
G| G>AG G2A| B>cB B2d| d>ed gBd| dcB A2A|
B>cd d>e^c| d2 (3d/e/f/ e2g| fed de^c| dFF F2d|
d>ed bgd| cdc afc| B>cB gBd| dcB A2A|
B>AB cBA| Gba Hg2e| d>Bd cBA| GGG G2 ||
